svgs/regular/person-skiing-nordic.svg

<svg xmlns="http://www.w3.org/2000/svg" viewBox="0 0 576 512"><!-- Font Awesome Pro 6.0.0-alpha2 by @fontawesome - https://fontawesome.com License - https://fontawesome.com/license (Commercial License) --><path d="M336 96C362.5 96 384 74.5 384 48S362.5 0 336 0S288 21.5 288 48S309.5 96 336 96ZM552 416C538.75 416 528 426.75 528 440S517.25 464 504 464H434.5L462.75 266.625C468.25 262.25 472 255.75 472 248.125C472 234.875 461.25 224.125 448 224.125H399L370.75 166.375C359.5 143.25 338.375 125.75 314.25 119.75L242.75 98.5C217.25 92.25 190.25 98.125 169.125 114.25L129.375 144.75C124.25 148.625 121 154.25 120.25 160.625C119.375 166.375 121 172.125 124.25 177L66.875 464H24C10.75 464 0 474.75 0 488S10.75 512 24 512H504C543.75 512 576 479.75 576 440C576 426.75 565.25 416 552 416ZM297.375 464H185.75L237.125 355.5L219.75 345.25C211.125 340.125 203.875 333.75 197.75 326.375L132.625 464H99.5L155.5 184.25C156.5 183.625 157.75 183.375 158.625 182.75L198.25 152.25C205.375 146.75 214.25 143.75 222.75 143.75C225.25 143.75 227.875 144.125 230.25 144.75L254.125 151.75L213.125 247.375C202.125 273.25 211.875 303.375 236.125 317.75L326.625 371.125L297.375 464ZM402.125 464H347.75L374.625 378.25C379.375 361.125 372 342.375 356.375 333L289.25 293.375L329.75 192L358 249.625C364.75 263.25 378.75 272 393.875 272H429.375L402.125 464Z"/></svg>

<svg xmlns="http://www.w3.org/2000/svg" viewBox="0 0 576 512"><!--! Font Awesome Pro 6.0.0-alpha3 by @fontawesome - https://fontawesome.com License - https://fontawesome.com/license (Commercial License) --><path d="M336 96C362.5 96 384 74.5 384 48S362.5 0 336 0S288 21.5 288 48S309.5 96 336 96zM552 416c-13.25 0-24 10.75-24 24s-10.75 24-24 24h-69.5l28.25-197.4C468.2 262.2 472 255.8 472 248.1c0-13.25-10.71-24.12-23.96-24.12L399 224.1l-28.25-57.75C359.5 143.2 338.4 125.8 314.2 119.8l-71.5-21.25C217.2 92.25 190.2 98.12 169.1 114.2L129.4 144.8C124.2 148.6 121 154.2 120.2 160.6c-.875 5.75 .75 11.5 4 16.38L66.88 464H24C10.75 464 0 474.8 0 488S10.75 512 24 512h480c39.75 0 72-32.25 72-72C576 426.8 565.3 416 552 416zM297.4 464H185.8l51.37-108.5L219.8 345.2c-8.625-5.125-15.88-11.5-22-18.87L132.6 464H99.5l56-279.8c1-.625 2.25-.875 3.125-1.5L198.2 152.2c7.125-5.5 15.96-8.456 24.46-8.456c2.5 0 5.17 .331 7.545 .9561l23.88 7L213.1 247.4c-11 25.87-1.25 55.1 23 70.38l90.5 53.37L297.4 464zM402.1 464h-54.37l26.87-85.75c4.75-17.12-2.625-35.87-18.25-45.25l-67.13-39.63L329.8 192l28.25 57.62C364.8 263.2 378.8 272 393.9 272h35.44L402.1 464z"/></svg>
